actions/22x22-dark/go-next-use.svg

<svg xmlns="http://www.w3.org/2000/svg" viewBox="0 0 22 22">
 <defs id="defs3051">
   <style type="text/css" id="current-color-scheme">
     .ColorScheme-Text {
       color:#f2f2f2;
     }
     </style>
 </defs>
   <path
      style="fill:currentColor;fill-opacity:1;stroke:none"
      d="m3 3v1 6h1 15v-1-6h-1-14zm1 1h14v5h-14zm-1 7v8l5-4zm8 1v3h2v-3zm4 0v3h4v-3z"
      class="ColorScheme-Text" />
</svg>

<svg xmlns="http://www.w3.org/2000/svg" viewBox="0 0 22 22">
  <defs id="defs3051">
    <style type="text/css" id="current-color-scheme">
      .ColorScheme-Text {
        color:#f2f2f2;
      }
      </style>
  </defs>
 <path 
    style="fill:currentColor;fill-opacity:1;stroke:none" 
    d="M 3 3 L 3 4 L 3 10 L 4 10 L 19 10 L 19 9 L 19 3 L 18 3 L 4 3 L 3 3 z M 4 4 L 18 4 L 18 9 L 4 9 L 4 4 z M 3 11 L 3 19 L 8 15 L 3 11 z M 11 12 L 11 15 L 13 15 L 13 12 L 11 12 z M 15 12 L 15 15 L 19 15 L 19 12 L 15 12 z "
    class="ColorScheme-Text"
    />  
</svg>
